X: 198
T: the Nabob
B: 204 Favourite Country Dances
N: Published by Straight & Skillern, London ca.1775
F: http://imslp.org/wiki/204_Favourite_Country_Dances_(Various) p.99 #198
Z: 2014 John Chambers <jc:trillian.mit.edu>
M: 6/8
L: 1/8
K: D
% - - - - - - - - - - - - - - - - - - - - - - - - -
|:\
D2D D2D | A2A A2A | ABc dcB | ABG FEF |\
D2D D2D | A2A A2A | B2B cBc | d3 D3 :|
|:\
BGd BGd | AFd AFd | BGd BGd | AFd AFd |\
BGE BGE | AFD AFD | B2B cBc | d3 D3 :|
% - - - - - - - - - - - - - - - - - - - - - - - - -
%%begintext align
%% The 1st and 2d Cu. foot it right and left
%% half round .| the same back again :| lead
%% down 2 Cu. up again and Cast off .|. foot
%% it and Hands round all Six :|:
%%endtext

%%sep 1 1 500
%%sep 1 1 500
